images/icons/twitter.svg

<svg width="14" height="12" viewBox="0 0 14 12" fill="none" xmlns="http://www.w3.org/2000/svg">
<path d="M0.276594 10.4305C1.57276 11.253 3.08126 11.6876 4.63876 11.6876C6.91959 11.6876 9.00968 10.8114 10.5246 9.22064C11.9742 7.69814 12.7716 5.65239 12.7319 3.57631C13.2814 3.10614 13.9278 2.20839 13.9278 1.33339C13.9278 0.997976 13.5638 0.785059 13.2686 0.955976C12.7523 1.25931 12.2816 1.33864 11.7974 1.20273C10.8087 0.239059 9.33693 0.0360588 8.09676 0.704559C7.01293 1.28789 6.41034 2.35539 6.46459 3.52206C4.63351 3.29864 2.94184 2.38048 1.76234 0.953642C1.56868 0.720892 1.20118 0.748309 1.04718 1.01198C0.47901 1.98498 0.484844 3.11256 0.978927 4.02314C0.743844 4.06456 0.598594 4.26231 0.598594 4.47639C0.598594 5.39164 1.01043 6.23281 1.67368 6.80681C1.55001 6.92581 1.50918 7.10256 1.56168 7.26006C1.85334 8.13623 2.51368 8.82106 3.33909 9.16406C2.44134 9.59281 1.44851 9.73573 0.56476 9.62723C0.107427 9.5654 -0.118323 10.1802 0.276594 10.4305ZM4.75834 9.31398C5.08559 9.06256 4.91176 8.53873 4.50109 8.52998C3.77776 8.51481 3.11918 8.15839 2.70909 7.59781C2.90684 7.58498 3.11159 7.55464 3.30643 7.50214C3.75034 7.38198 3.72934 6.74148 3.27843 6.65106C2.46001 6.48656 1.81776 5.89039 1.57684 5.12273C1.79676 5.17698 2.02076 5.20731 2.24418 5.21139C2.68693 5.21373 2.85434 4.64614 2.49326 4.40873C1.67951 3.87264 1.33243 2.92589 1.56226 2.03573C2.98326 3.47539 4.91118 4.34281 6.95051 4.44081C7.24276 4.45889 7.46209 4.18414 7.39793 3.90589C7.12084 2.70481 7.79168 1.86306 8.51209 1.47514C9.22493 1.09014 10.3694 0.969976 11.2468 1.89048C11.5075 2.16523 12.3872 2.17573 12.8346 2.07131C12.6339 2.44931 12.3253 2.80806 12.0366 3.00989C11.9135 3.09623 11.8429 3.23973 11.8505 3.38964C11.9444 5.30589 11.2304 7.21106 9.89168 8.61631C8.54301 10.0321 6.67809 10.812 4.63934 10.812C3.82851 10.812 3.03343 10.6801 2.28209 10.4258C3.18043 10.252 4.03384 9.87164 4.75834 9.31398Z" fill="#1C2D5A"/>
</svg>

<svg width="14" height="12" fill="none" xmlns="http://www.w3.org/2000/svg"><path d="M.277 10.43a8.125 8.125 0 0 0 4.362 1.258c2.28 0 4.37-.877 5.886-2.467a8.005 8.005 0 0 0 2.207-5.645c.55-.47 1.196-1.368 1.196-2.243a.438.438 0 0 0-.66-.377c-.516.303-.986.383-1.47.247C10.807.239 9.336.036 8.096.705c-1.084.583-1.687 1.65-1.632 2.817A7.25 7.25 0 0 1 1.762.954a.438.438 0 0 0-.715.058A3.049 3.049 0 0 0 .98 4.023a.455.455 0 0 0-.38.453c0 .916.411 1.757 1.075 2.33a.437.437 0 0 0-.112.454 3.14 3.14 0 0 0 1.777 1.904 5.094 5.094 0 0 1-2.774.463c-.458-.062-.683.553-.288.803Zm4.481-1.116a.438.438 0 0 0-.257-.784 2.282 2.282 0 0 1-1.792-.932c.198-.013.403-.043.597-.096.444-.12.423-.76-.028-.85a2.246 2.246 0 0 1-1.701-1.53c.22.055.444.085.667.09.443.002.61-.566.25-.803a2.174 2.174 0 0 1-.932-2.373A8.134 8.134 0 0 0 6.951 4.44a.437.437 0 0 0 .447-.535c-.277-1.201.394-2.043 1.114-2.43.713-.386 1.857-.506 2.735.414.26.275 1.14.286 1.588.181-.201.378-.51.737-.798.939a.437.437 0 0 0-.187.38 7.114 7.114 0 0 1-1.958 5.226c-1.349 1.416-3.214 2.196-5.253 2.196-.81 0-1.606-.132-2.357-.386a5.907 5.907 0 0 0 2.476-1.112Z" fill="#1C2D5A"/></svg>
